X:14
T:Nelson's Maggot. JJo8.014
B:J.Johnson Choice Collection Vol 8 1758
Z:vmp.Simon Wilson 2013 www.village-music-project.org.uk
M:C|
L:1/8
Q:1/2=80
K:F
|:f/g/|afdgc2B2|Af2A BG2f/g/|afdgc2B2|AfcAF3:|
|:G/F/|EGcGA2Ac|=BcdA{c}=B2AG|g=Bca gfed|egG=Bc3c|
Acfcd2Bd|=Bdgde2ce|cegb aefc|dBAGF3:|
